X:75
M:2/4
L:1/8
Q:1/2=60
K:Bb
eedd ccBB|AAGG FFEE|DDCC B,4:|
L:1/8
|:defB|dced|defB|dced|(g/f/g/a/) (bd)|(g/f/g/a/) be|d2Tc2|B4:|
L:1/16
|:B,CDE FEDC|B,CDE FEDC|B,CDE FGAB|\
[L:1/8] AF F2|BcBF|dBec|fgfd|cB B2:|
|:B2 dB|ec A/B/c/A/|B2 dB|fedc|\

